X: 11158
T: Dunatholl
R: strathspey
M: 4/4
K: Amajor
A>B|:c2 B<A a2 g>f|e>f e<c B2 A>B|1 c<A e2 f>e d<c|c2 B2 B2 A>B:|2 c>B A>a f<a e<a|c2 A2 A2 (3efg|
|:a2 e<a c2 B>A|1 e>f e<c B2 (3efg|a2 e<a c2 B>A|c2 B2 B2 (3efg:|2 e>f e<c B2 A>B|c>B A>a f<a e<a|c2 A2 A2 A>B|
|:c<A e2 a2 e2|c<A a>e d>c B>A|1 c<A e2 a2 e2|c2 B2 B2 A>B:|2 c>B A>a f<a e<a|c2 A2 A2 z2||

